kora/panel/16/audacious-panel.svg

<svg xmlns="http://www.w3.org/2000/svg" width="16" height="16" version="1">
 <defs>
  <style id="current-color-scheme" type="text/css">
   .ColorScheme-Text { color:#dfdfdf; } .ColorScheme-Highlight { color:#4285f4; }
  </style>
 </defs>
 <path style="fill:currentColor" class="ColorScheme-Text" d="M 8 1 A 7 7 0 0 0 1 8 A 7 7 0 0 0 8 15 A 7 7 0 0 0 15 8 A 7 7 0 0 0 8 1 z M 8.3300781 4.5742188 L 8.3320312 4.5742188 C 9.9318313 4.6347147 10.878739 5.7154474 10.982422 7.2929688 C 11.100671 9.0710004 10.576278 9.5352576 10.800781 9.8925781 C 11.268639 10.638922 10.606453 10.833091 10.166016 11.197266 C 9.8918072 11.42434 9.3618154 11.321092 9.0996094 10.998047 C 8.3027084 10.537044 8.6098017 11.42345 6.9648438 11.427734 C 6.1094175 11.392602 5.3251056 10.775393 5.1035156 9.9433594 C 4.7638473 8.666604 5.2609729 7.7240191 6.6484375 7.2792969 C 7.0498014 7.1507645 7.8448475 7.228693 8.1953125 6.9726562 C 8.5252124 6.7308439 8.4100687 6.3832197 8.0039062 6.3378906 C 7.4216544 6.2729388 6.5120463 6.5362838 5.9746094 6.4296875 C 5.5432546 6.344085 5.4118735 5.520251 5.6933594 5.1660156 C 6.1540196 4.5861631 7.336566 4.6109259 8.0039062 4.5800781 C 8.1170147 4.5748544 8.2238246 4.5701928 8.3300781 4.5742188 z M 8.0117188 8.1367188 C 7.4581164 8.1367187 7 8.5504853 7 9.0644531 C 7 9.5784211 7.4581163 10 8.0117188 10 C 8.5640423 10 9 9.5784211 9 9.0644531 C 9 8.5504853 8.5640423 8.1367186 8.0117188 8.1367188 z"/>
</svg>

<svg xmlns="http://www.w3.org/2000/svg" width="16" height="16" viewBox="0 0 16 16">
 <defs>
  <style id="current-color-scheme" type="text/css">
   .ColorScheme-Text { color:#dfdfdf; } .ColorScheme-Highlight { color:#4285f4; } .ColorScheme-NeutralText { color:#ff9800; } .ColorScheme-PositiveText { color:#4caf50; } .ColorScheme-NegativeText { color:#f44336; }
  </style>
 </defs>
 <path style="fill:currentColor" class="ColorScheme-Text" d="m8 1c-3.84 0-7 3.16-7 7s3.16 7 7 7 7-3.16 7-7-3.16-7-7-7zm0 1c3.292 0 6 2.708 6 6s-2.708 6-6 6-6-2.708-6-6 2.708-6 6-6zm.33 2.574h.002c1.6.061 2.547 1.141 2.65 2.719.119 1.778-.406 2.242-.181 2.6.468.746-.195.94-.635 1.304-.274.227-.804.124-1.066-.199-.797-.461-.49.425-2.135.43-.856-.035-1.64-.653-1.861-1.485-.34-1.276.157-2.219 1.544-2.664.402-.128 1.197-.05 1.547-.306.33-.242.215-.59-.191-.635-.582-.065-1.492.198-2.029.092-.432-.086-.563-.91-.282-1.264.461-.58 1.644-.555 2.311-.586.113-.005.22-.01.326-.006zm-.318 3.563c-.554 0-1.012.413-1.012.927s.458.936 1.012.936c.552 0 .988-.422.988-.936s-.436-.927-.988-.927z"/>
</svg>
